X:12864
T:Pastor que tas nel monte (CT 406)
C:Tradicional
S:Msica Tradicional Asturiana, (C) Tello & Tito. Asturies, 2001.
S:http://pagina.de/MusTradAst <telloytito@asturies.org>
N:Variante de CT 403, CT 404, CT 405,  CT 407, CT 408, dictada por Pedro Menndez, El Manjoyu, de treinta y nueve aos, de San Esteban de Las Cruces, ayuntamiento de Uviu.
O:San Esteban de Las Cruces (Uviu)
A:Asturies
Z:Cancioneru de Torner 406
M:3/8
L:1/8
Q:1/8=120
W:Galn que ests avezado
W:a dormir entre la rama:
W:si te vinieras conmigo, s, s,
W:durmieras en buena cama
W:y anda!
K:Cm
G
|GGG|G2 =B|d=Bc|ded|c2 B|A G2-|GzG|
ccc|B2 A|GFG|G2 G|ccc|B2 A|GFG|G3-|G ||
